X:1
T:Julian, LMD
T:Julian, LMD
T:Frederick Charles Maker (1844–1927)
T:Public Domain Courtesy of the Cyber Hymnal™
C:Frederick Charles Maker (1844–1927)
Z:Public Domain
Z:Courtesy of the Cyber Hymnal™
%%score ( 1 2 ) ( 3 4 )
L:1/8
Q:1/4=107
M:2/2
K:C
V:1 treble 
V:2 treble 
V:3 bass 
V:4 bass 
V:1
 C2 | [Ec]3 [Ec] [EB]2 E2 | [CA]3 [DA] [EG]2 C2 | [CF]3 [B,F] [CE]2 [DG]2 | %4
 [DG]2 [D^F]2 [DG]2 [DG]2 | [FA]3 [DB] [Cc]2 [CG]2 | [CG]2 [B,F]2 [CE]2 [D^F]2 | %7
 [DG]3 G [Gd]2 [GB]2 | [GB]2 [^FA]2 G3 G | G2 G2 G3 G | [Gd]2 [Gc]2 [GB]3 G | G2 G2 G3 G | %12
 [Gf]2 [Ge]2 [Gd]4 | [Ge]2 [Ge]>[Ge] [Ae]3 [Af] | [Gd]2 [Gd]2 [Ge]4 | c2 [_Bc]>[Bc] [Ac]2 [^Fd]2 | %16
 [Ge]4 [Gd]4 | [Gc]6 |] %18
V:2
 C2 | x6 E2 | x6 C2 | x8 | x8 | x8 | x8 | x3 G x4 | x4 G3 G | G2 G2 G3 G | x7 G | G2 G2 G3 G | x8 | %13
 x8 | x8 | c2 x6 | x8 | x6 |] %18
V:3
 C,2 | [A,C]3 [A,C] [G,C]2 [G,C]2 | [F,A,]3 [F,B,] [E,C]2 [E,G,]2 | %3
 [D,A,]3 [D,G,] [C,G,]2 [B,,G,]2 | [A,,C]2 [A,,C]2 [G,,B,]2 [G,B,]2 | %5
 [F,C]3 [F,G,] [E,G,]2 [E,G,]2 | [D,A,]2 [G,,G,]2 [C,G,]2 [C,A,]2 | [B,,G,]3 [A,,C] B,2 D2 | %8
 [D,D]2 [D,C]2 [G,,B,]3 G, | G,2 G,2 G,3 G, | [G,F]2 [G,E]2 [G,D]3 G, | G,2 G,2 G,3 G, | %12
 [G,D]2 [G,D]2 [G,B,]4 | C2 [A,^C]>[A,C] D3 [D,D] | [G,B,]2 [G,B,]2 C4 | %15
 C2 [E,C]>[E,C] [F,C]2 [A,C]2 | (C2 B,A,) (B,2 F2) | [C,E]6 |] %18
V:4
 C,2 | x8 | x8 | x8 | x8 | x8 | x8 | x4 (G,,A,,) (B,,C,) | x7 G, | G,2 G,2 G,3 G, | x7 G, | %11
 G,2 G,2 G,3 G, | x8 | ^C2 D3 x3 | x4 C4 | C2 x6 | G,4 x4 | x6 |] %18

